SVG_Azure_Grouped/Application/Static Web App.svg

<?xml version="1.0" encoding="UTF-8" standalone="no"?>
<!-- Generated by Microsoft Visio, SVG Export Static Web App.svg Page-1 -->

<svg
   xmlns:dc="http://purl.org/dc/elements/1.1/"
   xmlns:cc="http://creativecommons.org/ns#"
   xmlns:rdf="http://www.w3.org/1999/02/22-rdf-syntax-ns#"
   xmlns:svg="http://www.w3.org/2000/svg"
   xmlns="http://www.w3.org/2000/svg"
   xmlns:sodipodi="http://sodipodi.sourceforge.net/DTD/sodipodi-0.dtd"
   xmlns:inkscape="http://www.inkscape.org/namespaces/inkscape"
   width="0.78735936in"
   height="0.62988335in"
   viewBox="0 0 56.689782 45.351698"
   xml:space="preserve"
   class="st6"
   version="1.1"
   id="svg45"
   sodipodi:docname="Static Web App.svg"
   style="font-size:12px;overflow:visible;color-interpolation-filters:sRGB;fill:none;fill-rule:evenodd;stroke-linecap:square;stroke-miterlimit:3"
   inkscape:version="0.92.5 (2060ec1f9f, 2020-04-08)"><metadata
   id="metadata49"><rdf:RDF><cc:Work
       rdf:about=""><dc:format>image/svg+xml</dc:format><dc:type
         rdf:resource="http://purl.org/dc/dcmitype/StillImage" /></cc:Work></rdf:RDF></metadata><sodipodi:namedview
   pagecolor="#ffffff"
   bordercolor="#666666"
   borderopacity="1"
   objecttolerance="10"
   gridtolerance="10"
   guidetolerance="10"
   inkscape:pageopacity="0"
   inkscape:pageshadow="2"
   inkscape:window-width="640"
   inkscape:window-height="480"
   id="namedview47"
   showgrid="false"
   inkscape:zoom="1.5612629"
   inkscape:cx="37.795252"
   inkscape:cy="30.225663"
   inkscape:window-x="0"
   inkscape:window-y="0"
   inkscape:window-maximized="0"
   inkscape:current-layer="svg45" />
	<style
   type="text/css"
   id="style2">
	<![CDATA[
		.st1 {fill:url(#grad0-6);stroke:none;stroke-linecap:butt;stroke-width:34}
		.st2 {fill:#5ea0ef;fill-opacity:0.6;stroke:none;stroke-linecap:butt;stroke-width:34}
		.st3 {fill:#005ba1;stroke:none;stroke-linecap:butt;stroke-width:34}
		.st4 {fill:#ffffff;fill-opacity:0.8;stroke:none;stroke-linecap:butt;stroke-width:34}
		.st5 {fill:#ffffff;stroke:none;stroke-linecap:butt;stroke-width:34}
		.st6 {fill:none;fill-rule:evenodd;font-size:12px;overflow:visible;stroke-linecap:square;stroke-miterlimit:3}
	]]>
	</style>

	<defs
   id="Patterns_And_Gradients">
		<linearGradient
   id="grad0-6"
   x1="0"
   y1="104.3861"
   x2="43.468123"
   y2="104.3861"
   gradientTransform="scale(1.3041741,0.76676879)"
   gradientUnits="userSpaceOnUse">
			<stop
   offset="0"
   stop-color="#005ba1"
   stop-opacity="1"
   id="stop4" />
			<stop
   offset="0.775"
   stop-color="#0078d4"
   stop-opacity="1"
   id="stop6" />
		</linearGradient>
	</defs>
	<g
   id="g43"
   transform="translate(-34.000237,-34.0026)">
		<title
   id="title10">Page-1</title>
		<g
   id="group13734-1"
   transform="translate(34,-34.0157)">
			<title
   id="title12">Static Web App.13734</title>
			<g
   id="group13735-2">
				<title
   id="title14">Sheet.13735</title>
				<g
   id="shape13736-3">
					<title
   id="title16">Sheet.13736</title>
					<path
   d="m 0,80.04 h 56.69 v 31.45 a 1.88976,1.88049 0 0 1 -1.89,1.88 H 1.89 A 1.88976,1.88049 0 0 1 0,111.49 Z"
   class="st1"
   id="path18"
   inkscape:connector-curvature="0"
   style="fill:url(#grad0-6);stroke:none;stroke-width:34;stroke-linecap:butt" />
				</g>
				<g
   id="shape13737-7"
   transform="translate(4.12283,-3.33474)">
					<title
   id="title21">Sheet.13737</title>
					<path
   d="m 0,111.49 a 1.88981,1.88054 -180 0 0 1.89,1.88 h 45.12 a 1.88981,1.88054 -180 0 0 1.89,-1.88 V 88.57 A 1.88981,1.88054 -180 0 0 47.01,86.69 H 1.89 A 1.88981,1.88054 -180 0 0 0,88.57 Z"
   class="st2"
   id="path23"
   inkscape:connector-curvature="0"
   style="fill:#5ea0ef;fill-opacity:0.6;stroke:none;stroke-width:34;stroke-linecap:butt" />
				</g>
				<g
   id="shape13738-9"
   transform="translate(0,-33.3317)">
					<title
   id="title26">Sheet.13738</title>
					<path
   d="M 1.89,101.35 H 54.8 a 1.88976,1.88049 0 0 1 1.89,1.88 v 10.14 H 0 v -10.14 a 1.88976,1.88049 0 0 1 1.89,-1.88 z"
   class="st3"
   id="path28"
   inkscape:connector-curvature="0"
   style="fill:#005ba1;stroke:none;stroke-width:34;stroke-linecap:butt" />
				</g>
				<g
   id="shape13739-11"
   transform="translate(13.1437,-8.32162)">
					<title
   id="title31">Sheet.13739</title>
					<path
   d="m 9.25,112.23 -1.01,1.01 a 0.453543,0.451318 0 0 1 -0.645669,0 L 0.27,105.93 a 0.913386,0.908904 0 0 1 0,-1.285 l 1.01,-1.005 7.97,7.95 a 0.456693,0.454452 0 0 1 -0.00315,0.6425 z m 11.5,0 1.01,1.01 a 0.453543,0.451318 -180 0 0 0.645669,0 L 29.73,105.93 a 0.913386,0.908904 -180 0 0 0,-1.285 l -1.01,-1.005 -7.97,7.95 a 0.456693,0.454452 -180 0 0 0.0032,0.6425 z"
   class="st4"
   id="path33"
   inkscape:connector-curvature="0"
   style="fill:#ffffff;fill-opacity:0.8;stroke:none;stroke-width:34;stroke-linecap:butt" />
				</g>
				<g
   id="shape13740-13"
   transform="translate(5.88535,-5.86713)">
					<title
   id="title36">Sheet.13740</title>
					<path
   d="m 15.63,94.78 1.01,1.01 a 0.453543,0.451318 0 0 1 0,0.642501 L 8.53,104.48 7.52,103.47 a 0.910236,0.90577 0 0 1 0,-1.285 l 7.46,-7.405 a 0.456693,0.454452 0 0 1 0.645669,0.0031 z m 13.25,0 -1.01,1.01 a 0.453543,0.451318 -180 0 0 0,0.642501 l 8.11,8.047499 1.01,-1 a 0.919685,0.915173 -180 0 0 0,-1.28814 L 29.53,94.78 a 0.453543,0.451318 -180 0 0 -0.645669,0.0031 z m -9.07,18.59 -1.61,-0.51 a 0.330709,0.329086 0 0 1 -0.211024,-0.41057 L 24.57,91.99 a 0.314961,0.313415 0 0 1 0.409449,-0.209988 L 26.59,92.29 a 0.314961,0.313415 0 0 1 0.211024,0.40744 L 20.22,113.17 a 0.314961,0.313415 0 0 1 -0.409449,0.19745 z M 4.09,80.41 a 2.3937,2.38196 0 1 1 -2.4,-2.38 2.3937,2.38196 0 0 1 2.4,2.38 z m 5.14,-2.38 a 2.3937,2.38196 -180 1 0 2.4,2.38 2.3937,2.38196 -180 0 0 -2.4,-2.38 z m 7.54,0 a 2.3937,2.38196 -180 1 0 2.39,2.38 2.3937,2.38196 -180 0 0 -2.4,-2.38 z"
   class="st5"
   id="path38"
   inkscape:connector-curvature="0"
   style="fill:#ffffff;stroke:none;stroke-width:34;stroke-linecap:butt" />
				</g>
			</g>
		</g>
	</g>
</svg>

<?xml version="1.0" encoding="UTF-8" standalone="no"?>
<!DOCTYPE svg PUBLIC "-//W3C//DTD SVG 1.1//EN" "http://www.w3.org/Graphics/SVG/1.1/DTD/svg11.dtd">
<!-- Generated by Microsoft Visio, SVG Export Static Web App.svg Page-1 -->
<svg xmlns="http://www.w3.org/2000/svg" xmlns:xlink="http://www.w3.org/1999/xlink" xmlns:ev="http://www.w3.org/2001/xml-events"
		width="1.73185in" height="1.57458in" viewBox="0 0 124.693 113.37" xml:space="preserve" color-interpolation-filters="sRGB"
		class="st6">
	<style type="text/css">
	<![CDATA[
		.st1 {fill:url(#grad0-6);stroke:none;stroke-linecap:butt;stroke-width:34}
		.st2 {fill:#5ea0ef;fill-opacity:0.6;stroke:none;stroke-linecap:butt;stroke-width:34}
		.st3 {fill:#005ba1;stroke:none;stroke-linecap:butt;stroke-width:34}
		.st4 {fill:#ffffff;fill-opacity:0.8;stroke:none;stroke-linecap:butt;stroke-width:34}
		.st5 {fill:#ffffff;stroke:none;stroke-linecap:butt;stroke-width:34}
		.st6 {fill:none;fill-rule:evenodd;font-size:12px;overflow:visible;stroke-linecap:square;stroke-miterlimit:3}
	]]>
	</style>

	<defs id="Patterns_And_Gradients">
		<linearGradient id="grad0-6" x1="0" y1="0" x2="1" y2="0" gradientTransform="rotate(-90 0.5 0.5)">
			<stop offset="0" stop-color="#005ba1" stop-opacity="1"/>
			<stop offset="0.775" stop-color="#0078d4" stop-opacity="1"/>
		</linearGradient>
	</defs>
	<g>
		<title>Page-1</title>
		<g id="group13387-1" transform="translate(34,-34.0157)">
			<title>Static Web App.13387</title>
			<g id="group13388-2">
				<title>Sheet.13388</title>
				<g id="shape13389-3">
					<title>Sheet.13389</title>
					<path d="M0 80.04 L56.69 80.04 L56.69 111.49 A1.88976 1.88049 0 0 1 54.8 113.37 L1.89 113.37 A1.88976 1.88049
								 0 0 1 0 111.49 L0 80.04 Z" class="st1"/>
				</g>
				<g id="shape13390-7" transform="translate(4.12283,-3.33474)">
					<title>Sheet.13390</title>
					<path d="M0 111.49 A1.88981 1.88054 -180 0 0 1.89 113.37 L47.01 113.37 A1.88981 1.88054 -180 0 0 48.9 111.49
								 L48.9 88.57 A1.88981 1.88054 -180 0 0 47.01 86.69 L1.89 86.69 A1.88981 1.88054 -180 0 0 0 88.57
								 L0 111.49 Z" class="st2"/>
				</g>
				<g id="shape13391-9" transform="translate(0,-33.3317)">
					<title>Sheet.13391</title>
					<path d="M1.89 101.35 L54.8 101.35 A1.88976 1.88049 0 0 1 56.69 103.23 L56.69 113.37 L0 113.37 L0 103.23 A1.88976
								 1.88049 0 0 1 1.89 101.35 Z" class="st3"/>
				</g>
				<g id="shape13392-11" transform="translate(13.1437,-8.32162)">
					<title>Sheet.13392</title>
					<path d="M9.25 112.23 L8.24 113.24 a0.453543 0.451318 0 0 1 -0.645669 0 L0.27 105.93 a0.913386 0.908904 0 0 1
								 -7.77156E-15 -1.285 L1.28 103.64 L9.25 111.59 a0.456693 0.454452 0 0 1 -0.00314961 0.642501 ZM20.75
								 112.23 L21.76 113.24 a0.453543 0.451318 -180 0 0 0.645669 1.42109E-14 L29.73 105.93 a0.913386 0.908904
								 -180 0 0 -3.19744E-14 -1.285 L28.72 103.64 L20.75 111.59 a0.456693 0.454452 -180 0 0 0.00314961
								 0.642501 Z" class="st4"/>
				</g>
				<g id="shape13393-13" transform="translate(5.88535,-5.86713)">
					<title>Sheet.13393</title>
					<path d="M15.63 94.78 L16.64 95.79 a0.453543 0.451318 0 0 1 -7.10543E-15 0.642501 L8.53 104.48 L7.52 103.47 a0.910236
								 0.90577 0 0 1 -2.66454E-15 -1.285 L14.98 94.78 a0.456693 0.454452 0 0 1 0.645669 0.00313415 ZM28.88
								 94.78 L27.87 95.79 a0.453543 0.451318 -180 0 0 0 0.642501 L35.98 104.48 L36.99 103.48 a0.919685
								 0.915173 -180 0 0 4.26326E-14 -1.28814 L29.53 94.78 a0.453543 0.451318 -180 0 0 -0.645669 0.00313415
								 L28.88 94.78 ZM19.81 113.37 L18.2 112.86 a0.330709 0.329086 0 0 1 -0.211024 -0.410574 L24.57 91.99
								 a0.314961 0.313415 0 0 1 0.409449 -0.209988 L26.59 92.29 a0.314961 0.313415 0 0 1 0.211024 0.40744
								 L20.22 113.17 a0.314961 0.313415 0 0 1 -0.409449 0.197452 ZM4.09 80.41 A2.3937 2.38196 0 1 1 1.69
								 78.03 A2.3937 2.38196 0 0 1 4.09 80.41 ZM9.23 78.03 A2.3937 2.38196 -180 1 0 11.63 80.41 A2.3937
								 2.38196 -180 0 0 9.23 78.03 ZM16.77 78.03 A2.3937 2.38196 -180 1 0 19.16 80.41 A2.3937 2.38196 -180
								 0 0 16.76 78.03 L16.77 78.03 Z" class="st5"/>
				</g>
			</g>
		</g>
	</g>
</svg>
